assets/icons/messenger-white.svg

<svg viewBox="0 0 1024 1024.21" xmlns="http://www.w3.org/2000/svg"><g fill="#fff" transform="translate(0 .01)"><path d="m1024 512.1c-.34 243.58-169.56 452.29-408.67 501.16-119.13 24.34-233.76 8.09-341.73-49-11.69-6.18-21.39-7.26-34.15-3-60.42 20.32-121.22 39.5-181.94 58.91-22 7-39.22 2.05-50.46-14.36-8.45-12.33-8-25.39-3.5-39.18 20.66-63.63 40.91-127.43 61.64-191.06 2.15-6.62 1.5-11.73-1.78-17.69-46.41-84.42-68.06-175.09-62.58-271 8.9-155.66 75.17-282.88 197.46-379.68 74-58.56 158.66-93 252.55-103.7 220.49-25.12 424.46 86.3 522.55 285 33.12 67.14 50.72 144.85 50.61 223.6zm-921.85 409.54c19.91-6.36 37.52-12 55.11-17.6 25-8 50.49-14.91 74.87-24.54 24.08-9.51 44.13-5.89 66.42 7 93 53.66 193.3 69.68 298.42 48.76 174.3-34.68 307.85-171.77 340.36-347 31.55-170.08-45.16-346.62-191.15-439.47-94.28-60-196.82-81.23-306.9-62.71-106.44 17.83-193.58 70.33-261.92 153.29-57.36 69.63-89.12 150.09-95.82 240.27-6.23 83.68 10.27 162.79 50.24 236.36 25 46.08 23.65 39.44 8.12 88.27-12.19 38.29-24.62 76.54-37.75 117.37z"/><path d="m312.17 561.64c-27.5 0-50.31-23-50-50.43a50.29 50.29 0 0 1 49.93-49.44c27.47 0 50.28 23 50 50.42-.26 27.01-22.88 49.45-49.93 49.45z"/><path d="m562.14 512.1c-.23 27-22.8 49.46-49.85 49.51-27.52 0-50.35-22.94-50-50.37a50.21 50.21 0 0 1 49.83-49.51c27.44-.09 50.25 22.91 50.02 50.37z"/><path d="m762.21 511.91c-.13 27.49-23.21 50.09-50.71 49.69-27.12-.42-49.32-23.08-49.15-50.17a50.15 50.15 0 0 1 49.65-49.69c27.42-.21 50.35 22.68 50.21 50.17z"/></g></svg>

<svg id="Layer_1" data-name="Layer 1" xmlns="http://www.w3.org/2000/svg" viewBox="0 0 1024 1024.21"><defs><style>.cls-1{fill:#fff;}</style></defs><path class="cls-1" d="M1024,512.1c-.34,243.58-169.56,452.29-408.67,501.16-119.13,24.34-233.76,8.09-341.73-49-11.69-6.18-21.39-7.26-34.15-3-60.42,20.32-121.22,39.5-181.94,58.91-22,7-39.22,2.05-50.46-14.36-8.45-12.33-8-25.39-3.5-39.18C24.21,903,44.46,839.2,65.19,775.57c2.15-6.62,1.5-11.73-1.78-17.69C17,673.46-4.65,582.79.83,486.88,9.73,331.22,76,204,198.29,107.2c74-58.56,158.66-93,252.55-103.7,220.49-25.12,424.46,86.3,522.55,285C1006.51,355.64,1024.11,433.35,1024,512.1ZM102.15,921.64c19.91-6.36,37.52-12,55.11-17.6,25-8,50.49-14.91,74.87-24.54,24.08-9.51,44.13-5.89,66.42,7,93,53.66,193.3,69.68,298.42,48.76,174.3-34.68,307.85-171.77,340.36-347,31.55-170.08-45.16-346.62-191.15-439.47-94.28-60-196.82-81.23-306.9-62.71C332.84,103.91,245.7,156.41,177.36,239.37,120,309,88.24,389.46,81.54,479.64,75.31,563.32,91.81,642.43,131.78,716c25,46.08,23.65,39.44,8.12,88.27C127.71,842.56,115.28,880.81,102.15,921.64Z" transform="translate(0 0.01)"/><path class="cls-1" d="M312.17,561.64c-27.5,0-50.31-23-50-50.43a50.29,50.29,0,0,1,49.93-49.44c27.47,0,50.28,23,50,50.42C361.84,539.2,339.22,561.64,312.17,561.64Z" transform="translate(0 0.01)"/><path class="cls-1" d="M562.14,512.1c-.23,27-22.8,49.46-49.85,49.51-27.52,0-50.35-22.94-50-50.37a50.21,50.21,0,0,1,49.83-49.51C539.56,461.64,562.37,484.64,562.14,512.1Z" transform="translate(0 0.01)"/><path class="cls-1" d="M762.21,511.91C762.08,539.4,739,562,711.5,561.6c-27.12-.42-49.32-23.08-49.15-50.17A50.15,50.15,0,0,1,712,461.74C739.42,461.53,762.35,484.42,762.21,511.91Z" transform="translate(0 0.01)"/></svg>
